modules/hawcons-stroke/icons/icon-14-flag.svg

<?xml version="1.0" encoding="UTF-8" standalone="no"?>
<svg width="32px" height="32px" viewBox="0 0 32 32" version="1.1" xmlns="http://www.w3.org/2000/svg" xmlns:xlink="http://www.w3.org/1999/xlink" xmlns:sketch="http://www.bohemiancoding.com/sketch/ns">
    <!-- Generator: Sketch 3.0.3 (7891) - http://www.bohemiancoding.com/sketch -->
    <title>icon 14 flag</title>
    <desc>Created with Sketch.</desc>
    <defs></defs>
    <g id="Page-1" stroke="none" stroke-width="1" fill="none" fill-rule="evenodd" sketch:type="MSPage">
        <g id="icon-14-flag" sketch:type="MSArtboardGroup" fill="#929292">
            <path d="M8,10.5 L8,29 L9,29 L9,14.4977833 C10.2662537,14.0173135 12.688621,13.5578843 16,15.0000002 C21.022644,17.1873775 24,15 24,15 L24,4 C24,4 21.0237426,6.23632822 16,4.00000001 C10.9762573,1.76367192 8,4 8,4 L8,10.5 L8,10.5 Z M15.5206299,4.90002441 C11.4223526,3.09789377 9,4.59997559 9,4.59997559 L9,13.4376217 C9,13.4376217 12.1543897,12.1709948 16.37677,14.0823976 C20.3317261,15.8727419 23.0175781,14.42273 23.0175781,14.42273 L23.0175781,5.5 C23.0175781,5.5 19.9946289,6.86737071 15.5206299,4.90002441 L15.5206299,4.90002441 L15.5206299,4.90002441 Z" id="flag" sketch:type="MSShapeGroup"></path>
        </g>
    </g>
</svg>

<svg width="32" height="32" xmlns="http://www.w3.org/2000/svg"><path d="M8 10.5V29h1V14.498c1.266-.48 3.689-.94 7 .502 5.023 2.187 8 0 8 0V4s-2.976 2.236-8 0-8 0-8 0v6.5zm7.52-5.6C11.423 3.098 9 4.6 9 4.6v8.838s3.154-1.267 7.377.644c3.955 1.79 6.64.34 6.64.34V5.5s-3.022 1.367-7.496-.6z" fill="#929292" fill-rule="evenodd"/></svg>
